packages/vibrant-icons/assets/icons/BellOff/Fill.svg

<svg width="24" height="24" viewBox="0 0 24 24" fill="none" xmlns="http://www.w3.org/2000/svg">
<path d="M12.0051 23C10.9006 23 10.0051 22.1046 10.0051 21C10.0051 19.8954 10.9006 19 12.0051 19C13.1097 19 14.0051 19.8954 14.0051 21C14.0051 22.1046 13.1097 23 12.0051 23Z" fill="#0C0C0C"/>
<path d="M4.50515 9.75V15H3.25515C3.10515 15 3.00515 15.1 3.00515 15.25V17.25C3.00515 17.4 3.10515 17.5 3.25515 17.5H12.2551L4.50515 9.75Z" fill="#0C0C0C"/>
<path d="M2.05508 3.5L3.50508 2.05C3.60508 1.95 3.75508 1.95 3.85508 2.05L5.90508 4.1C7.30508 2.25 9.50508 1 12.0051 1C16.1051 1 19.5051 4.4 19.5051 8.5V15H20.7551C20.9051 15 21.0051 15.1 21.0051 15.25V17.25C21.0051 17.4 20.9051 17.5 20.7551 17.5H19.2551L21.9051 20.15C22.0051 20.25 22.0051 20.4 21.9551 20.5L20.5051 21.95C20.4051 22.05 20.2551 22.05 20.1551 21.95L2.05508 3.85C2.00508 3.75 2.00508 3.6 2.05508 3.5Z" fill="#0C0C0C"/>
</svg>

<svg xmlns="http://www.w3.org/2000/svg" width="24" height="24" fill="none"><path fill="#0C0C0C" d="M12.005 23a2 2 0 1 1 0-4 2 2 0 0 1 0 4M4.505 9.75V15h-1.25c-.15 0-.25.1-.25.25v2c0 .15.1.25.25.25h9zM2.055 3.5l1.45-1.45c.1-.1.25-.1.35 0l2.05 2.05c1.4-1.85 3.6-3.1 6.1-3.1 4.1 0 7.5 3.4 7.5 7.5V15h1.25c.15 0 .25.1.25.25v2c0 .15-.1.25-.25.25h-1.5l2.65 2.65c.1.1.1.25.05.35l-1.45 1.45c-.1.1-.25.1-.35 0l-18.1-18.1a.43.43 0 0 1 0-.35"/></svg>
